icons/glyphs/glyph-archive-extract.svg

<?xml version="1.0" encoding="UTF-8" standalone="no"?><svg height="16" viewBox="0 0 4.2333332 4.2333332" width="16" xmlns="http://www.w3.org/2000/svg"><sodipodi:namedview/><metadata><rdf:RDF><cc:Work><dc:format>image/svg+xml</dc:format><dc:type/><dc:title/></cc:Work></rdf:RDF></metadata><path d="m-.00000004-.00000005v3.67161045.5617228h4.23333324v-.5617228-3.67161045zm.61805025.2537313h.37878835c.0187999 0 .0335896.015307.0335896.034107v.3493326c0 .0188-.0148.033073-.0335896.033073h-.37878835c-.0187899 0-.0341064-.014373-.0341064-.033073v-.3493331c0-.0188.0153165-.034107.0341064-.0341065zm.44700109.4165121h.3787884c.01879 0 .034106.015823.034106.034623v.34881585c0 .0188-.015316.034106-.034106.034106h-.3787884c-.01879 0-.034623-.015406-.034623-.034106v-.34881585c0-.0188.015823-.034623.034623-.034623zm-.43356528.55758865h.74620778c.03413 0 .059895.027395.061495.061495l.060462 1.2836426c.0016.0341-.03141.060978-.07028.060978h-.84956108c-.0388702 0-.0718801-.026878-.0702799-.060978l.060978-1.2836426c.0016-.0341.0268584-.061495.0609782-.061495zm2.13216968.8578288.9095052 1.5740641h-1.8184937zm-2.03140047.021187c-.023771 0-.0428916.019192-.0428916.042891v.2630331c0 .0238.0191207.043408.0428916.043408h.54518617c.02377 0 .042375-.019708.042375-.043408v-.2630324c0-.0237-.018605-.042891-.042375-.042891z" fill="#d0d0d0"/></svg>

<?xml version="1.0" encoding="UTF-8" standalone="no"?>
<!-- Created with Inkscape (http://www.inkscape.org/) -->

<svg
   xmlns:dc="http://purl.org/dc/elements/1.1/"
   xmlns:cc="http://creativecommons.org/ns#"
   xmlns:rdf="http://www.w3.org/1999/02/22-rdf-syntax-ns#"
   xmlns:svg="http://www.w3.org/2000/svg"
   xmlns="http://www.w3.org/2000/svg"
   xmlns:sodipodi="http://sodipodi.sourceforge.net/DTD/sodipodi-0.dtd"
   xmlns:inkscape="http://www.inkscape.org/namespaces/inkscape"
   width="16"
   height="16"
   viewBox="0 0 4.2333332 4.2333332"
   version="1.1"
   id="svg8"
   inkscape:version="0.92+devel (260139f747, 2017-08-10, custom)"
   sodipodi:docname="glyph-archive-extract.svg">
  <defs
     id="defs2" />
  <sodipodi:namedview
     id="base"
     pagecolor="#002466"
     bordercolor="#ffffff"
     borderopacity="0.38039216"
     inkscape:pageopacity="1"
     inkscape:pageshadow="2"
     inkscape:zoom="10.137867"
     inkscape:cx="55.90616"
     inkscape:cy="27.302424"
     inkscape:document-units="px"
     inkscape:current-layer="svg8"
     inkscape:document-rotation="0"
     showgrid="false"
     inkscape:showpageshadow="false"
     borderlayer="true"
     inkscape:window-width="1920"
     inkscape:window-height="1027"
     inkscape:window-x="0"
     inkscape:window-y="24"
     inkscape:window-maximized="1"
     units="px" />
  <metadata
     id="metadata5">
    <rdf:RDF>
      <cc:Work
         rdf:about="">
        <dc:format>image/svg+xml</dc:format>
        <dc:type
           rdf:resource="http://purl.org/dc/dcmitype/StillImage" />
        <dc:title></dc:title>
      </cc:Work>
    </rdf:RDF>
  </metadata>
  <path
     style="fill:#d0d0d0;fill-opacity:1;stroke-width:1"
     d="M -4.0000001e-8,-5.0000001e-8 V 3.6716104 4.2333332 H 4.2333332 V 3.6716104 -5.0000001e-8 Z M 0.61805021,0.25373125 h 0.37878835 c 0.0187999,0 0.0335896,0.015307 0.0335896,0.034107 v 0.3493326 c 0,0.0188 -0.0148,0.033073 -0.0335896,0.033073 H 0.61805021 c -0.0187899,0 -0.0341064,-0.014373 -0.0341064,-0.033073 v -0.3493331 c 0,-0.0188 0.0153165,-0.034107 0.0341064,-0.0341065 z m 0.44700109,0.4165121 h 0.3787884 c 0.01879,0 0.034106,0.015823 0.034106,0.034623 V 1.0536822 c 0,0.0188 -0.015316,0.034106 -0.034106,0.034106 H 1.0650513 c -0.01879,0 -0.034623,-0.015406 -0.034623,-0.034106 V 0.70486635 c 0,-0.0188 0.015823,-0.034623 0.034623,-0.034623 z M 0.63148602,1.227832 H 1.3776938 c 0.03413,0 0.059895,0.027395 0.061495,0.061495 l 0.060462,1.2836426 c 0.0016,0.0341 -0.03141,0.060978 -0.07028,0.060978 H 0.57980972 c -0.0388702,0 -0.0718801,-0.026878 -0.0702799,-0.060978 l 0.060978,-1.2836426 c 0.0016,-0.0341 0.0268584,-0.061495 0.0609782,-0.061495 z M 2.7636557,2.0856608 3.6731609,3.6597249 H 1.8546672 Z m -2.03140047,0.021187 c -0.023771,0 -0.0428916,0.019192 -0.0428916,0.042891 v 0.2630331 c 0,0.0238 0.0191207,0.043408 0.0428916,0.043408 H 1.2774414 c 0.02377,0 0.042375,-0.019708 0.042375,-0.043408 V 2.1497395 c 0,-0.0237 -0.018605,-0.042891 -0.042375,-0.042891 z"
     id="path1395"
     inkscape:connector-curvature="0"
     inkscape:label="#" />
</svg>
